X:17
T:Downeys Lock. LIT.017
M:2/2
Q:1/4=140
L:1/8
B:Wm. Litten MS, 1802
Z:Village Music Project 2017 Anne Wride
K:Gm
GA | B2 Bc ABAG | FGAB cBAB | dcBA BAGF | G2g2g2 :|
|: F2 | Bcde fdcB | ABc2 ABc2 | Acde fdcB | A2cd Ac c2 |
ABcd fecA | E2EF D2D2 | E2 FF Dd dF | d2D2D2 :|

